assets/svg/svgoOutput/invite.svg

<svg width="22" height="22" viewBox="0 0 22 22" fill="none" xmlns="http://www.w3.org/2000/svg"><path d="M4 2V6M2 4H6M5 16V20M3 18H7M12 2L14.2857 8.85714L20 11L14.2857 13.1429L12 20L9.71429 13.1429L4 11L9.71429 8.85714L12 2Z" stroke="#F5F5F5" stroke-width="2.14" stroke-linecap="round" stroke-linejoin="round"/></svg>

<svg width="22" height="22" fill="none" xmlns="http://www.w3.org/2000/svg"><path d="M4 2v4M2 4h4M5 16v4m-2-2h4m5-16 2.286 6.857L20 11l-5.714 2.143L12 20l-2.286-6.857L4 11l5.714-2.143L12 2z" stroke="#F5F5F5" stroke-width="2.14" stroke-linecap="round" stroke-linejoin="round"/></svg>
